Papirus/16x16/apps/half-life-deathmatch.svg

<svg width="16" height="16" version="1.1" xmlns="http://www.w3.org/2000/svg">
 <g>
  <path d="m8 4e-8c-4.4091 0-8 3.591-8 8 4e-8 4.409 3.591 8 8 8s8-3.591 8-8-3.591-8-8-8z" style="fill:#522f17"/>
  <path d="m8 2a6 6 0 0 0-6 6 6 6 0 0 0 6 6 6 6 0 0 0 6-6 6 6 0 0 0-6-6zm-2.4067 1.7666h2.2991l2.6396 6.7134 1.1609-0.37793 0.38672 1.3-2.5034 0.72288-1.6838-4.2686-2.469 3.8906h-1.5484l3.4483-5.5686-0.38672-1.1001h-1.3433v-1.3118z" style="fill:#a38976"/>
 </g>
</svg>

<svg xmlns="http://www.w3.org/2000/svg" width="16" height="16" version="1.1">
 <circle style="fill:#522f17" cx="8" cy="8" r="8"/>
 <path style="fill:#a38976" d="M 8,2 A 6,6 0 0 0 2,8 6,6 0 0 0 8,14 6,6 0 0 0 14,8 6,6 0 0 0 8,2 Z M 5.5933,3.7666 H 7.8924 L 10.532,10.48 11.693,10.102 12.08,11.402 9.5762,12.125 7.8924,7.8564 5.4234,11.747 H 3.875 L 7.3233,6.1784 6.9366,5.0783 H 5.5933 V 3.7665 Z"/>
</svg>
